X:1
T:Title
%%score ( 1 2 ) { 3 | 4 }
L:1/8
Q:1/4=107
M:4/4
K:G
V:1 treble nm="Grand Piano, Soprano"
V:2 treble 
V:3 bass nm="Choir Pad, Durban, W. Howard Doane"
V:4 bass 
V:1
 [B,D]2 [B,D]2 [DG]2 [DG]2 | FGAF [DG]2 [DG]2 | [GB]2 [GB]2 [Bd]2 [Bd]2 | [Ac]2 [GB]2 .[FA]4 | %4
w: By~Willliam~Howard~Doane,~1880 * * *||||
 [B,D]2 [B,D]2 [DG]2 [DG]2 | FGAF [DG]2 [GB]2 | [FA]2 [FA]2 [Fd]2 [Fd]2 | [G^c]2 Bc [Fd]2 z2 | %8
w: ||||
 [Fd]3 [Ac] [GB]2 [DG]2 | z4 .G2 z2 | [Ac]3 [Ac] [GB]2 [GB]2 | [FA]2 [Fd]2 [Fd]2 z2 | %12
w: ||||
 [Gd]3 [Ac] [GB]2 [DG]2 | z4 .G2 z2 | [Ac]3 [Ac] [GB]2 [EA]2 | [DG]2 [DF]2 [DG]4- | [DG]4 z4 |] %17
w: |||||
V:2
 x8 | D2 D2 z4 | x8 | x8 | x8 | D2 D2 z4 | x8 | z2 G2 z4 | x8 | [DA]2 D2 D-[DA] [GB]2 | x8 | x8 | %12
 x8 | [DA]2 D2 D-[DA] [GB]2 | x8 | x8 | x8 |] %17
V:3
 G,2 G,2 G,2 G,2 | A,B,CA, B,2 B,2 | D2 D2 D2 D2 | D2 D2 .D4 | G,2 G,2 G,2 G,2 | A,B,CA, B,2 D2 | %6
 D2 D2 A,2 A,2 | A,2 A,2 A,2 z2 | A,3 D D2 B,2 | C2 C2 B,C D2 | D3 D D2 D2 | D2 A,2 A,2 z2 | %12
 B,3 D D2 B,2 | C2 C2 B,C D2 | D3 D D2[K:bass] C2 | B,2 C2 B,4- | B,4 z4 |] %17
V:4
 G,,2 G,,2 B,,2 B,,2 | D,2 D,2 G,2 G,2 | G,2 G,2 G,2 G,2 | F,2 G,2 .D,4 | G,,2 G,,2 B,,2 B,,2 | %5
 D,2 D,2 G,2 G,2 | A,2 A,2 A,,2 A,,2 | A,,2 A,,2 D,2 z2 | D,3 D, G,2 G,2 | D,2 F,2 G,2 G,2 | %10
 F,3 F, G,2 G,2 | D,2 D,2 D,2 z2 | G,3 G, G,2 G,2 | D,2 F,2 G,2 G,2 | F,3 F, G,2 C,2 | %15
 D,2 D,2 G,,4- | G,,4 z4 |] %17

